img/icons/this/logo-decor.svg

<svg width="88" height="81" viewBox="0 0 88 81" fill="none" xmlns="http://www.w3.org/2000/svg">
<path d="M43.2986 41V39.6254C43.9231 39.6254 44.6425 39.433 44.6425 37.9622C44.6425 36.6151 43.9774 34.6632 42.9593 33.0137C41.9683 31.4055 40.8009 30.3746 40 30.3746V29C41.8733 29 43.5023 31.2955 44.1131 32.2852C45.2805 34.1684 46 36.3402 46 37.9622C46 39.8591 44.9955 41 43.2986 41Z" fill="#92B69A"/>
<path d="M44 40.4291L43.1695 39.3374C42.6487 39.7013 41.9308 39.9844 41.0299 38.8118C40.2135 37.7471 39.5941 35.8197 39.4393 33.9194C39.2985 32.0729 39.6504 30.5634 40.312 30.0917L39.4815 29C37.919 30.1052 37.9472 32.8681 38.0316 34.0137C38.2006 36.1836 38.9044 38.3266 39.8897 39.607C41.044 41.1165 42.5783 41.413 44 40.4291Z" fill="#92B69A"/>
<path d="M58.0734 56C57.7326 56 57.3919 55.9861 57.0369 55.9722C47.766 55.5548 42.0302 50.5183 40 41.0017L41.3771 40.6678C42.087 44.007 44.2308 54.0105 57.1079 54.5809C63.4542 54.8452 68.9628 52.3408 71.8165 47.8469C73.8751 44.5913 74.1591 40.7791 72.5406 37.913C70.3116 33.9617 67.2023 33.3774 65.5412 33.3774C63.1986 33.3774 60.998 34.5182 60.0468 36.2017C58.6838 38.6226 55.5888 40.7652 52.3376 41.5583C50.2931 42.0452 47.2407 42.24 44.3302 40.3618L45.1111 39.2069C47.5956 40.8069 50.2222 40.64 51.9968 40.2087C54.8363 39.5269 57.6332 37.5931 58.7974 35.5339C59.99 33.4191 62.7017 32 65.5412 32C68.8918 32 71.9017 33.92 73.7757 37.2591C75.6498 40.5704 75.3516 44.9252 73.0233 48.5983C70.0418 53.273 64.5048 56 58.0734 56Z" fill="#92B69A"/>
<path d="M54.5041 41L53.8135 39.8024C59.051 37.0943 60.1014 32.236 59.3532 28.5889C58.5618 24.7241 55.7991 21.7982 52.6336 21.458C49.2522 21.0906 46.7629 21.6757 45.2664 23.1863C43.4678 24.9962 42.993 28.1534 43.8275 32.6035L42.4174 32.8484C41.4965 27.9629 42.1008 24.3975 44.216 22.2609C46.0434 20.4238 48.9356 19.7025 52.7918 20.1108C56.6193 20.5326 59.828 23.8395 60.7489 28.344C61.6123 32.4538 60.418 37.9517 54.5041 41Z" fill="#92B69A"/>
<path d="M23.5479 66C21.7713 66 19.9662 65.7967 18.2038 65.363C12.3907 63.9535 8.45371 60.5111 7.38774 55.9167C6.2507 51.0513 7.64358 46.6466 11.1826 43.8277C14.3663 41.2933 18.7439 40.4802 22.0555 41.8083C25.4951 43.1907 29.0341 41.8219 32.4594 40.5073C34.563 39.6941 37.6045 38.1897 39.7365 38L39.8644 39.3553C37.9456 39.5315 35.0888 40.9681 32.9995 41.7677C29.3042 43.1907 25.4809 44.6544 21.5012 43.0687C18.7013 41.9438 14.8353 42.7028 12.0922 44.8848C10.2588 46.3485 7.38774 49.6825 8.7664 55.6457C9.71867 59.7115 13.2861 62.788 18.5449 64.0755C24.9408 65.6341 31.8199 64.0891 35.2878 60.3214C41.9395 53.0842 41.57 45.576 41.57 45.5082L42.9913 45.4269C43.0055 45.7522 43.4176 53.5315 36.368 61.2159C33.5396 64.2517 28.6788 66 23.5479 66Z" fill="#92B69A"/>
<path d="M32.2434 42C24.8413 42 19.6372 37.7668 18.205 30.4659C17.5102 26.9427 18.6162 22.9507 20.9985 20.2848C22.9696 18.0878 25.5787 16.9358 28.5566 17.0028C32.4987 17.0697 34.3705 18.7041 35.2638 20.0571C36.54 22.0129 36.5826 24.8127 35.3631 27.1838C33.2644 31.2965 36.5542 34.4312 40 37.0166L39.1208 38.0749C34.0301 34.2704 32.4703 29.7559 34.0868 26.6078C35.0936 24.6386 35.0795 22.3478 34.0585 20.7671C33.0517 19.2265 31.1515 18.3826 28.5424 18.3424C28.4857 18.3424 28.4289 18.3424 28.3864 18.3424C25.2667 18.3424 23.2532 19.8695 22.0904 21.1556C19.9633 23.5267 18.9991 27.0767 19.6088 30.2248C20.2611 33.5738 22.9128 41.29 33.4346 40.6202L33.5338 41.9598C33.0801 41.9866 32.6688 42 32.2434 42Z" fill="#92B69A"/>
<path d="M57.3579 23L56.1139 22.3367C58.9165 17.6396 59.3741 11.7513 57.2578 7.32496C56.2426 5.19976 54.1835 2.49251 50.0653 1.66679C45.704 0.786935 41.4142 1.77508 38.3113 4.37405C34.6793 7.40619 32.9777 12.3605 33.5354 18.2894L32.1054 18.4112C31.5192 12.0356 33.3924 6.68876 37.3676 3.35883C40.8137 0.4756 45.561 -0.620855 50.3799 0.340222C54.0977 1.08472 56.9289 3.31821 58.5734 6.76997C60.8469 11.5618 60.3751 17.9374 57.3579 23Z" fill="#92B69A"/>
<path d="M52.2033 81C48.6486 81 45.5221 79.7439 43.0524 77.3006C38.5269 72.8144 36.8566 64.9325 38.7981 57.2162L40.1829 57.5476C38.3841 64.6979 39.9402 72.2485 44.0803 76.3343C46.9783 79.2055 50.9042 80.2132 55.444 79.2607C59.9267 78.3083 62.7676 75.2991 63.4243 70.7853C64.2952 64.7807 61.083 57.6442 56.4148 55.2147L57.0857 54C62.3251 56.7331 65.8084 64.3389 64.8376 70.9785C64.0953 76.1135 60.8689 79.523 55.7581 80.6135C54.5303 80.862 53.3454 81 52.2033 81Z" fill="#92B69A"/>
<path d="M22.482 44C17.3488 42.5838 12.9288 39.0913 10.3692 34.4164C7.85153 29.824 7.32002 24.6403 8.87258 19.8141C10.7888 13.888 16.2578 11.8943 20.384 12.0043C24.706 12.1143 28.1608 14.2455 29 17.3392L27.6433 17.6967C26.9719 15.208 24.0486 13.4755 20.356 13.393C16.5375 13.283 11.8938 15.0567 10.2153 20.2541C8.77468 24.7228 9.26422 29.5215 11.6001 33.7839C13.9919 38.1289 18.0901 41.3875 22.8597 42.7075L22.482 44Z" fill="#92B69A"/>
<path d="M11.5972 62C2.20555 60.561 -0.47567 53.9903 0.0664355 48.818C0.696449 42.9261 5.72191 36.7627 14 37.007L13.956 38.3646C6.5717 38.161 2.10299 43.5234 1.53158 48.9401C1.04809 53.5423 3.45093 59.3663 11.8462 60.656L11.5972 62Z" fill="#92B69A"/>
<path d="M30.6383 78C29.0543 78 27.4993 77.6338 26.0315 76.9014C21.6136 74.7042 19.1867 69.6901 20.2476 65L21.6717 65.2958C20.7417 69.3803 22.8634 73.7324 26.7 75.6338C30.9144 77.7324 35.7247 76.338 39.9246 71.831L41 72.7746C37.8174 76.2112 34.1697 78 30.6383 78Z" fill="#92B69A"/>
<path d="M72.9119 70C69.9507 70 66.9048 68.8986 64 66.7229L64.8602 65.6487C69.993 69.4969 74.2656 68.953 76.9449 67.8108C80.9637 66.0975 83.2904 62.3581 83.516 59.5433C83.8262 55.7224 82.8673 52.3094 80.8791 50.1745C79.2151 48.3932 76.8602 47.4414 73.8708 47.3598L73.9131 46C77.2974 46.0952 80.0048 47.1966 81.9367 49.2634C85.0107 52.5677 85.1376 57.191 84.9402 59.6521C84.63 63.4051 81.5136 67.362 77.523 69.0618C76.0283 69.6873 74.4772 70 72.9119 70Z" fill="#92B69A"/>
<path d="M81.2964 49L80.8063 47.7327C83.7609 46.7215 85.8652 43.5262 86.4273 39.1714C87.1046 33.9268 85.3031 28.8305 82.0602 26.7812C78.2985 24.4083 73.2973 23.7207 69.0168 24.9611C66.2207 25.77 62.4446 27.7923 60.3404 32.7942L59 32.2954C61.306 26.7947 65.4857 24.5701 68.5844 23.6667C73.2685 22.305 78.7453 23.06 82.8529 25.6486C87.1767 28.3721 88.4739 34.4661 87.8541 39.3062C87.22 44.2003 84.7698 47.8136 81.2964 49Z" fill="#92B69A"/>
<path d="M74.8316 24L73.475 23.6645C75.6428 15.6517 74.6498 10.122 70.6639 8.10871C67.1815 6.35047 62.3705 7.90739 60.0489 10.4575L59 9.57167C61.6572 6.64574 67.1256 4.79355 71.3212 6.91418C73.9925 8.26977 78.0063 12.2829 74.8316 24Z" fill="#92B69A"/>
</svg>

<svg width="88" height="81" fill="none" xmlns="http://www.w3.org/2000/svg"><path d="M43.299 41v-1.375c.624 0 1.343-.192 1.343-1.663 0-1.347-.665-3.299-1.683-4.948-.99-1.609-2.158-2.64-2.959-2.64V29c1.873 0 3.502 2.296 4.113 3.285C45.281 34.168 46 36.34 46 37.962 46 39.86 44.995 41 43.299 41z" fill="#92B69A"/><path d="M44 40.43l-.83-1.093c-.521.364-1.24.647-2.14-.525-.816-1.065-1.436-2.992-1.59-4.893-.142-1.846.21-3.356.872-3.827L39.482 29c-1.563 1.105-1.535 3.868-1.45 5.014.169 2.17.872 4.313 1.858 5.593 1.154 1.51 2.688 1.806 4.11.822z" fill="#92B69A"/><path d="M58.073 56c-.34 0-.681-.014-1.036-.028-9.271-.417-15.007-5.454-17.037-14.97l1.377-.334c.71 3.339 2.854 13.343 15.73 13.913 6.347.264 11.856-2.24 14.71-6.734 2.058-3.256 2.342-7.068.724-9.934-2.23-3.951-5.339-4.536-7-4.536-2.342 0-4.543 1.141-5.494 2.825-1.363 2.42-4.458 4.563-7.71 5.356-2.044.487-5.096.682-8.007-1.196l.781-1.155c2.485 1.6 5.111 1.433 6.886 1.002 2.84-.682 5.636-2.616 6.8-4.675C59.99 33.419 62.702 32 65.541 32c3.35 0 6.36 1.92 8.235 5.26 1.874 3.31 1.576 7.665-.753 11.338C70.042 53.273 64.505 56 58.073 56z" fill="#92B69A"/><path d="M54.504 41l-.69-1.198c5.237-2.708 6.287-7.566 5.54-11.213-.792-3.865-3.555-6.79-6.72-7.131-3.382-.367-5.871.218-7.368 1.728-1.798 1.81-2.273 4.967-1.438 9.417l-1.41.245c-.922-4.885-.317-8.45 1.798-10.587 1.827-1.837 4.72-2.558 8.576-2.15 3.827.422 7.036 3.729 7.957 8.233.863 4.11-.331 9.608-6.245 12.656zM23.548 66c-1.777 0-3.582-.203-5.344-.637-5.813-1.41-9.75-4.852-10.816-9.446-1.137-4.866.256-9.27 3.795-12.09 3.183-2.534 7.56-3.347 10.872-2.019 3.44 1.383 6.98.014 10.404-1.3 2.104-.814 5.145-2.318 7.277-2.508l.128 1.355c-1.918.177-4.775 1.613-6.864 2.413-3.696 1.423-7.52 2.886-11.499 1.3-2.8-1.124-6.666-.365-9.409 1.817-1.833 1.464-4.704 4.797-3.326 10.76.953 4.066 4.52 7.143 9.779 8.43 6.396 1.56 13.275.014 16.743-3.754 6.652-7.237 6.282-14.745 6.282-14.813l1.421-.081c.014.325.427 8.105-6.623 15.789C33.54 64.252 28.678 66 23.548 66z" fill="#92B69A"/><path d="M32.243 42c-7.402 0-12.606-4.233-14.038-11.534-.695-3.523.411-7.515 2.794-10.181 1.97-2.197 4.58-3.35 7.558-3.282 3.942.067 5.814 1.701 6.707 3.054 1.276 1.956 1.319 4.756.1 7.127-2.1 4.113 1.19 7.247 4.636 9.833l-.88 1.058c-5.09-3.805-6.65-8.32-5.033-11.467 1.007-1.97.992-4.26-.029-5.84-1.006-1.541-2.907-2.385-5.516-2.426h-.156c-3.12 0-5.133 1.527-6.296 2.814-2.127 2.37-3.09 5.92-2.481 9.069.652 3.349 3.304 11.065 13.826 10.395l.099 1.34c-.454.027-.865.04-1.29.04z" fill="#92B69A"/><path d="M57.358 23l-1.244-.663c2.803-4.697 3.26-10.586 1.144-15.012-1.015-2.125-3.075-4.832-7.193-5.658-4.361-.88-8.65.108-11.754 2.707-3.632 3.032-5.333 7.987-4.776 13.915l-1.43.122C31.52 12.036 33.392 6.69 37.368 3.36 40.814.476 45.56-.621 50.38.34c3.718.745 6.549 2.978 8.193 6.43 2.274 4.792 1.802 11.167-1.215 16.23zm-5.155 58c-3.554 0-6.68-1.256-9.15-3.7-4.526-4.486-6.196-12.367-4.255-20.084l1.385.332c-1.799 7.15-.243 14.7 3.897 18.786 2.898 2.871 6.824 3.88 11.364 2.927 4.483-.953 7.324-3.962 7.98-8.476.871-6.004-2.341-13.14-7.01-15.57L57.087 54c5.24 2.733 8.722 10.339 7.752 16.978-.743 5.136-3.97 8.545-9.08 9.636-1.228.248-2.413.386-3.555.386zM22.482 44a19.93 19.93 0 01-12.113-9.584C7.852 29.824 7.32 24.64 8.873 19.814c1.916-5.926 7.385-7.92 11.511-7.81 4.322.11 7.777 2.242 8.616 5.335l-1.357.358c-.671-2.489-3.594-4.221-7.287-4.304-3.819-.11-8.462 1.664-10.14 6.861-1.441 4.469-.952 9.267 1.384 13.53 2.392 4.345 6.49 7.604 11.26 8.924L22.482 44z" fill="#92B69A"/><path d="M11.597 62C2.206 60.561-.476 53.99.067 48.818.696 42.926 5.721 36.763 14 37.007l-.044 1.358C6.572 38.16 2.103 43.523 1.532 48.94c-.484 4.602 1.919 10.426 10.314 11.716L11.597 62zm19.041 16a10.25 10.25 0 01-4.607-1.099c-4.417-2.197-6.844-7.21-5.783-11.901l1.424.296c-.93 4.084 1.191 8.436 5.028 10.338 4.214 2.098 9.025.704 13.225-3.803l1.075.944C37.817 76.21 34.17 78 30.638 78zm42.274-8c-2.961 0-6.007-1.101-8.912-3.277l.86-1.074c5.133 3.848 9.406 3.304 12.085 2.162 4.019-1.714 6.345-5.453 6.571-8.268.31-3.82-.649-7.234-2.637-9.368-1.664-1.782-4.019-2.734-7.008-2.815l.042-1.36c3.384.095 6.092 1.197 8.024 3.263 3.074 3.305 3.2 7.928 3.003 10.39-.31 3.752-3.426 7.709-7.417 9.409a11.888 11.888 0 01-4.611.938z" fill="#92B69A"/><path d="M81.296 49l-.49-1.267c2.955-1.011 5.06-4.207 5.621-8.562.678-5.244-1.124-10.34-4.367-12.39-3.761-2.373-8.763-3.06-13.043-1.82-2.796.809-6.572 2.831-8.677 7.833L59 32.295c2.306-5.5 6.486-7.725 9.584-8.628 4.684-1.362 10.161-.607 14.269 1.982 4.324 2.723 5.62 8.817 5.001 13.657C87.22 44.2 84.77 47.814 81.296 49z" fill="#92B69A"/><path d="M74.832 24l-1.357-.335c2.168-8.013 1.175-13.543-2.811-15.556-3.483-1.759-8.294-.202-10.615 2.348L59 9.572c2.657-2.926 8.126-4.778 12.321-2.658 2.672 1.356 6.685 5.369 3.51 17.086z" fill="#92B69A"/></svg>
